shader dirtSh (
	color Cin=1,
	float freq=10,
	output float mag=0,
	output color Cout=1
	)
{
	point PP=transform("object", P);
	float fre = freq;
	float i;
	float smag=mag;
	for(i=0;i<8;i++)
	{
		smag+=abs((float)noise("perlin",PP*fre))/(fre/2);
		fre*=2.1;
	}
	Cout=smag*10;
	mag=smag*10;
	smag *=-1;
}