shader stripes (
	color Cin=1,
	float freq=10,
    float sizeX=1,
    float sizeY=1,
    float sizeZ=1,
	output float mag=0,
	output color Cout=1
	)
{
    float smag=mag;
    float fre = freq;
	point PP=transform("object", P);
    PP[0]*=sizeX;
    PP[1]*=sizeY;
    PP[2]*=sizeZ;

	float i;
	for(i=0;i<8;i++)
	{
		smag+=abs((float)noise("perlin",PP*fre))/fre;
		fre*=2.1;
	}
	Cout=smag*13;
    mag=smag*13;
	smag *=-1;
}